build/asset/patrickstarfishhat.svg

<?xml version="1.0" encoding="utf-8"?>
<!-- Generator: Adobe Illustrator 16.0.0, SVG Export Plug-In . SVG Version: 6.00 Build 0)  -->
<!DOCTYPE svg PUBLIC "-//W3C//DTD SVG 1.1//EN" "http://www.w3.org/Graphics/SVG/1.1/DTD/svg11.dtd">
<svg version="1.1" id="Layer_3" xmlns="http://www.w3.org/2000/svg" xmlns:xlink="http://www.w3.org/1999/xlink" x="0px" y="0px"
	 width="3000px" height="3000px" viewBox="0 0 3000 3000" enable-background="new 0 0 3000 3000" xml:space="preserve">
<g>
	<path fill="#E18E88" d="M1201.831,879.694l223.637-468.488l215.89,462.759C1641.357,873.965,1474.193,963.182,1201.831,879.694z"/>
	<path fill="#E8A8A3" d="M1545.834,871.638l-116.667-441.137c0,0,77.28,165.935,167.974,432.301L1545.834,871.638z"/>
	<path fill="#E8A8A3" d="M1289.075,871.637c-2.712,0.901,127.668-423.384,127.668-423.384v-15.77l-168.398,427.9L1289.075,871.637z"
		/>
	
		<ellipse transform="matrix(0.4139 -0.9103 0.9103 0.4139 221.8629 1881.1327)" fill="#D47D71" cx="1571.81" cy="768.269" rx="3.53" ry="4.75"/>
	<path fill="#93CE4E" d="M1212.704,850.541c0,0,177.272,73.922,411.108,0l12.695,27.211c0,0-161.53,91.257-439.527,5.729
		L1212.704,850.541z"/>
	<path fill="#BA50D7" d="M1385.594,882.451c0,0-2.695,14.015,15.093,13.476c17.788-0.539,20.753-19.405,22.909-2.695
		c2.156,16.71,9.433,18.058,11.05,19.136c1.617,1.078,21.292,2.965,15.363-13.476c-5.929-16.441-4.043-15.632-1.887-14.555
		c2.156,1.078,20.484,3.773,14.285-3.503L1385.594,882.451z"/>
	<path fill="#BA50D7" d="M1226.833,887.5c0,0-9.962-19.102,11.852-14.218c0,0,5.814,5.884,6.148,7.551s4.333-11.667,10.667-12.667
		s25.667-0.667,23.667,7.667s-1.334,14.667,5.333,11.667s22,5,10.333,15.333L1226.833,887.5z"/>
	<path fill="#BA50D7" d="M1558.499,902.5c0,0-11.001-10,3.666-18.667s14.2,6.667,22.601-9.666s17.754-11.164,20.41-8.416
		s1.893,8.831-2.059,14.123s9.096-10.617,13.072,7.837L1558.499,902.5z"/>
	<path fill="none" stroke="#31323D" stroke-width="10" stroke-miterlimit="10" d="M1201.831,882.694l223.637-468.488l215.89,462.759
		C1641.357,876.965,1474.193,966.182,1201.831,882.694z"/>
	<path fill="#93CE4E" d="M1212.704,850.541"/>
	<path fill="none" stroke="#31323D" stroke-width="5" stroke-miterlimit="10" d="M1216.554,849.864c0,0,177.272,73.922,411.108,0
		l12.695,27.211c0,0-161.53,91.257-439.527,5.729L1216.554,849.864z"/>
	<path fill="#B950D9" stroke="#31323D" stroke-width="5" stroke-miterlimit="10" d="M1413.667,399.807
		c0,0-0.479-39.667,5.927-19.167s8.574,26.333,12.407,19.667s18.833-28.5,14.833-12.167s-10.333,25,4.833,19.833s24.5-4,15.667,0.5
		s-22,15.5-22.667,17.667S1456,439.307,1456,439.307s8.457,9.344-23.688-7.078c0,0-10.329,51.745-18.653,2.245
		c0,0-28.657,12.501-19.658,1.167s10.5-13.167,10.5-13.167s-36.333,5-19.5-1.667s22.833-10.5,22.833-10.5
		S1359,385.974,1413.667,399.807z"/>
	<g>
		<path fill="#590713" d="M1313.576,826.775c0,0,2.5-82,75-135.5c72.5-53.5,173.5-26,187,130.5
			C1575.576,821.775,1427.576,862.275,1313.576,826.775z"/>
		<path fill="#2F0006" stroke="#31323D" stroke-width="3" stroke-miterlimit="10" d="M1349.205,734.159
			c0,0,61.294-15.302,45.961,9.031s4.667,28.667,9.667,22.667s2-27,2-27s5.667-28,35,4.333s-6.334,71.666-24.667,65
			S1284.5,818.858,1349.205,734.159z"/>
		<path fill="#C42D38" stroke="#31323D" stroke-width="3" stroke-miterlimit="10" d="M1424.576,814.436
			c0,0-5.719-7.218-16.436-13.886c-17.861-11.114-47.687-19.531-89.978,8.386l-2.25,17.839c0,0,66.254,27.081,207.998,5.661
			c0,0-31.667-51-88.001-42.667c0,0-24.667,3.334-25.667,9.667L1424.576,814.436z"/>
		<path fill="none" stroke="#31323D" stroke-width="5" stroke-miterlimit="10" d="M1315.912,826.775c0,0,2.5-82,75-135.5
			s173.5-26,187,130.5C1577.912,821.775,1429.912,862.275,1315.912,826.775z"/>
	</g>
	
		<ellipse fill="#FFFFFF" stroke="#31323D" stroke-width="3" stroke-miterlimit="10" cx="1516.953" cy="576.681" rx="54.857" ry="52.643"/>
	
		<ellipse fill="#FFFFFF" stroke="#31323D" stroke-width="3" stroke-miterlimit="10" cx="1422.98" cy="576.681" rx="56.441" ry="52.643"/>
	<circle fill="#31323D" stroke="#31323D" stroke-width="3" stroke-miterlimit="10" cx="1431.41" cy="570.924" r="5.757"/>
	<circle fill="#31323D" stroke="#31323D" stroke-width="3" stroke-miterlimit="10" cx="1528.5" cy="570.924" r="5.757"/>
	
		<ellipse transform="matrix(-0.9119 -0.4104 0.4104 -0.9119 2720.7554 2249.6411)" fill="#D47D71" cx="1601.811" cy="832.827" rx="3.53" ry="4.75"/>
	
		<ellipse transform="matrix(-0.5062 -0.8624 0.8624 -0.5062 1740.8705 1959.4487)" fill="#D47D71" cx="1431.41" cy="481.327" rx="3.53" ry="4.75"/>
	
		<ellipse transform="matrix(0.9582 0.286 -0.286 0.9582 207.7631 -378.3609)" fill="#D47D71" cx="1399.094" cy="522.038" rx="3.157" ry="4.247"/>
	
		<ellipse transform="matrix(-0.9119 -0.4104 0.4104 -0.9119 2236.8865 1828.8037)" fill="#D47D71" cx="1314.711" cy="674.338" rx="4.775" ry="4.75"/>
	
		<ellipse transform="matrix(-0.3604 0.9328 -0.9328 -0.3604 2518.0876 -172.5081)" fill="#D47D71" cx="1318.188" cy="777.077" rx="3.53" ry="4.749"/>
	
		<ellipse transform="matrix(0.1249 -0.9922 0.9922 0.1249 275.2198 1975.8219)" fill="#D47D71" cx="1257.705" cy="831.889" rx="3.53" ry="5.37"/>
	<path fill="none" stroke="#31323D" stroke-width="3" stroke-miterlimit="10" d="M1460.167,849.864c0,0,22.666,4.967,42.333-4.366"
		/>
</g>
</svg>

<?xml version="1.0" encoding="UTF-8" standalone="no"?>
<!DOCTYPE svg PUBLIC "-//W3C//DTD SVG 1.1//EN" "http://www.w3.org/Graphics/SVG/1.1/DTD/svg11.dtd">
<svg width="100%" height="100%" viewBox="0 0 3000 3000" version="1.1" xmlns="http://www.w3.org/2000/svg" xmlns:xlink="http://www.w3.org/1999/xlink" xml:space="preserve" xmlns:serif="http://www.serif.com/" style="fill-rule:evenodd;clip-rule:evenodd;stroke-miterlimit:10;">
    <path d="M1201.83,879.694L1425.47,411.206L1641.36,873.965C1641.36,873.965 1474.19,963.182 1201.83,879.694Z" style="fill:rgb(225,142,136);fill-rule:nonzero;"/>
    <path d="M1545.83,871.638L1429.17,430.501C1429.17,430.501 1506.45,596.436 1597.14,862.802L1545.83,871.638Z" style="fill:rgb(232,168,163);fill-rule:nonzero;"/>
    <path d="M1289.08,871.637C1286.36,872.538 1416.74,448.253 1416.74,448.253L1416.74,432.483L1248.35,860.383L1289.08,871.637Z" style="fill:rgb(232,168,163);fill-rule:nonzero;"/>
    <g transform="matrix(0.4139,-0.9103,0.9103,0.4139,221.863,1881.13)">
        <ellipse cx="1571.81" cy="768.269" rx="3.53" ry="4.75" style="fill:rgb(212,125,113);"/>
    </g>
    <path d="M1212.7,850.541C1212.7,850.541 1389.98,924.463 1623.81,850.541L1636.51,877.752C1636.51,877.752 1474.98,969.009 1196.98,883.481L1212.7,850.541Z" style="fill:rgb(147,206,78);fill-rule:nonzero;"/>
    <path d="M1385.59,882.451C1385.59,882.451 1382.9,896.466 1400.69,895.927C1418.48,895.388 1421.44,876.522 1423.6,893.232C1425.75,909.942 1433.03,911.29 1434.65,912.368C1436.26,913.446 1455.94,915.333 1450.01,898.892C1444.08,882.451 1445.97,883.26 1448.12,884.337C1450.28,885.415 1468.61,888.11 1462.41,880.834L1385.59,882.451Z" style="fill:rgb(186,80,215);fill-rule:nonzero;"/>
    <path d="M1226.83,887.5C1226.83,887.5 1216.87,868.398 1238.68,873.282C1238.68,873.282 1244.5,879.166 1244.83,880.833C1245.17,882.5 1249.17,869.166 1255.5,868.166C1261.83,867.166 1281.17,867.499 1279.17,875.833C1277.17,884.167 1277.83,890.5 1284.5,887.5C1291.17,884.5 1306.5,892.5 1294.83,902.833L1226.83,887.5Z" style="fill:rgb(186,80,215);fill-rule:nonzero;"/>
    <path d="M1558.5,902.5C1558.5,902.5 1547.5,892.5 1562.16,883.833C1576.83,875.166 1576.37,890.5 1584.77,874.167C1593.17,857.834 1602.52,863.003 1605.18,865.751C1607.83,868.499 1607.07,874.582 1603.12,879.874C1599.16,885.166 1612.21,869.257 1616.19,887.711L1558.5,902.5Z" style="fill:rgb(186,80,215);fill-rule:nonzero;"/>
    <path d="M1201.83,882.694L1425.47,414.206L1641.36,876.965C1641.36,876.965 1474.19,966.182 1201.83,882.694Z" style="fill:none;stroke:rgb(49,50,61);stroke-width:10px;"/>
    <path d="M1216.55,849.864C1216.55,849.864 1393.83,923.786 1627.66,849.864L1640.36,877.075C1640.36,877.075 1478.83,968.332 1200.83,882.804L1216.55,849.864Z" style="fill:none;stroke:rgb(49,50,61);stroke-width:5px;"/>
    <path d="M1413.67,399.807C1413.67,399.807 1413.19,360.14 1419.59,380.64C1426,401.14 1428.17,406.973 1432,400.307C1435.83,393.641 1450.83,371.807 1446.83,388.14C1442.83,404.473 1436.5,413.14 1451.67,407.973C1466.83,402.806 1476.17,403.973 1467.33,408.473C1458.5,412.973 1445.33,423.973 1444.67,426.14C1444,428.307 1456,439.307 1456,439.307C1456,439.307 1464.46,448.651 1432.31,432.229C1432.31,432.229 1421.98,483.974 1413.66,434.474C1413.66,434.474 1385,446.975 1394,435.641C1403,424.307 1404.5,422.474 1404.5,422.474C1404.5,422.474 1368.17,427.474 1385,420.807C1401.83,414.14 1407.83,410.307 1407.83,410.307C1407.83,410.307 1359,385.974 1413.67,399.807Z" style="fill:rgb(185,80,217);fill-rule:nonzero;stroke:rgb(49,50,61);stroke-width:5px;"/>
    <g>
        <path d="M1313.58,826.775C1313.58,826.775 1316.08,744.775 1388.58,691.275C1461.08,637.775 1562.08,665.275 1575.58,821.775C1575.58,821.775 1427.58,862.275 1313.58,826.775Z" style="fill:rgb(89,7,19);fill-rule:nonzero;"/>
        <path d="M1349.2,734.159C1349.2,734.159 1410.5,718.857 1395.17,743.19C1379.83,767.523 1399.83,771.857 1404.83,765.857C1409.83,759.857 1406.83,738.857 1406.83,738.857C1406.83,738.857 1412.5,710.857 1441.83,743.19C1471.17,775.523 1435.5,814.856 1417.17,808.19C1398.83,801.524 1284.5,818.858 1349.2,734.159Z" style="fill:rgb(47,0,6);fill-rule:nonzero;stroke:rgb(49,50,61);stroke-width:3px;"/>
        <path d="M1424.58,814.436C1424.58,814.436 1418.86,807.218 1408.14,800.55C1390.28,789.436 1360.45,781.019 1318.16,808.936L1315.91,826.775C1315.91,826.775 1382.17,853.856 1523.91,832.436C1523.91,832.436 1492.24,781.436 1435.91,789.769C1435.91,789.769 1411.24,793.103 1410.24,799.436L1424.58,814.436Z" style="fill:rgb(196,45,56);fill-rule:nonzero;stroke:rgb(49,50,61);stroke-width:3px;"/>
        <path d="M1315.91,826.775C1315.91,826.775 1318.41,744.775 1390.91,691.275C1463.41,637.775 1564.41,665.275 1577.91,821.775C1577.91,821.775 1429.91,862.275 1315.91,826.775Z" style="fill:none;stroke:rgb(49,50,61);stroke-width:5px;"/>
    </g>
    <ellipse cx="1516.95" cy="576.681" rx="54.857" ry="52.643" style="fill:white;stroke:rgb(49,50,61);stroke-width:3px;"/>
    <ellipse cx="1422.98" cy="576.681" rx="56.441" ry="52.643" style="fill:white;stroke:rgb(49,50,61);stroke-width:3px;"/>
    <circle cx="1431.41" cy="570.924" r="5.757" style="fill:rgb(49,50,61);stroke:rgb(49,50,61);stroke-width:3px;"/>
    <circle cx="1528.5" cy="570.924" r="5.757" style="fill:rgb(49,50,61);stroke:rgb(49,50,61);stroke-width:3px;"/>
    <g transform="matrix(-0.9119,-0.4104,0.4104,-0.9119,2720.76,2249.64)">
        <ellipse cx="1601.81" cy="832.827" rx="3.53" ry="4.75" style="fill:rgb(212,125,113);"/>
    </g>
    <g transform="matrix(-0.5062,-0.8624,0.8624,-0.5062,1740.87,1959.45)">
        <ellipse cx="1431.41" cy="481.327" rx="3.53" ry="4.75" style="fill:rgb(212,125,113);"/>
    </g>
    <g transform="matrix(0.9582,0.286,-0.286,0.9582,207.763,-378.361)">
        <ellipse cx="1399.09" cy="522.038" rx="3.157" ry="4.247" style="fill:rgb(212,125,113);"/>
    </g>
    <g transform="matrix(-0.9119,-0.4104,0.4104,-0.9119,2236.89,1828.8)">
        <ellipse cx="1314.71" cy="674.338" rx="4.775" ry="4.75" style="fill:rgb(212,125,113);"/>
    </g>
    <g transform="matrix(-0.3604,0.9328,-0.9328,-0.3604,2518.09,-172.508)">
        <ellipse cx="1318.19" cy="777.077" rx="3.53" ry="4.749" style="fill:rgb(212,125,113);"/>
    </g>
    <g transform="matrix(0.1249,-0.9922,0.9922,0.1249,275.22,1975.82)">
        <ellipse cx="1257.7" cy="831.889" rx="3.53" ry="5.37" style="fill:rgb(212,125,113);"/>
    </g>
    <path d="M1460.17,849.864C1460.17,849.864 1482.83,854.831 1502.5,845.498" style="fill:none;stroke:rgb(49,50,61);stroke-width:3px;"/>
    <g transform="matrix(3.50667,0,0,3.98485,-1393.33,-2000)">
        <rect x="397.338" y="501.901" width="855.513" height="752.852" style="fill:none;"/>
    </g>
</svg>
